Icons/com_android_settings.svg

<svg viewBox="0 0 48 48" xmlns:xlink="http://www.w3.org/1999/xlink">
 <defs>
  <linearGradient id="0">
   <stop stop-opacity="0"/>
   <stop offset="1"/>
  </linearGradient>
  <linearGradient xlink:href="#0" id="1" gradientUnits="userSpaceOnUse" gradientTransform="translate(4e-7,-48)" y1="47" x2="0" y2="1"/>
  <clipPath id="2">
   <g transform="translate(0,-1004.3622)">
    <rect rx="4" y="1005.36" x="1" height="46" width="46" fill="#1890d0"/>
   </g>
  </clipPath>
  <clipPath id="3">
   <g transform="translate(0,-1004.3622)">
    <rect rx="4" y="1005.36" x="1" height="46" width="46" fill="#1890d0"/>
   </g>
  </clipPath>
 </defs>
 <g>
  <g transform="translate(0,-1004.3622)">
   <path d="m 5,1006.3622 c -2.216,0 -4,1.784 -4,4 l 0,37.25 c 0,2.216 1.784,4 4,4 l 38,0 c 2.216,0 4,-1.784 4,-4 l 0,-37.25 c 0,-2.216 -1.784,-4 -4,-4 l -38,0 z m -4,41.5 0,0.5 c 0,2.216 1.784,4 4,4 l 38,0 c 2.216,0 4,-1.784 4,-4 l 0,-0.5 c 0,2.216 -1.784,4 -4,4 l -38,0 c -2.216,0 -4,-1.784 -4,-4 z" opacity="0.02"/>
   <path d="m 1,1047.6122 0,0.25 c 0,2.216 1.784,4 4,4 l 38,0 c 2.216,0 4,-1.784 4,-4 l 0,-0.25 c 0,2.216 -1.784,4 -4,4 l -38,0 c -2.216,0 -4,-1.784 -4,-4 z" opacity="0.05"/>
   <rect width="46" height="46" x="1" y="1005.61" rx="4" opacity="0.1"/>
  </g>
 </g>
 <g>
  <g transform="translate(0,-1004.3622)">
   <rect rx="4" y="1005.36" x="1" height="46" width="46" fill="#5c5c68"/>
  </g>
 </g>
 <g>
  <rect transform="scale(1,-1)" width="46" height="46" x="1" y="-46.998" rx="4" opacity="0.1" fill="url(#1)"/>
 </g>
 <g>
  <g clip-path="url(#2)">
   <g opacity="0.1">
    <g>
     <path d="M 16.3125 26 L 31.683594 26 C 34.621094 26 37 28.238281 37 31 C 37 33.761719 34.621094 36 31.683594 36 L 16.3125 36 C 13.378906 36 11 33.761719 11 31 C 11 28.238281 13.378906 26 16.3125 26 Z M 16.3125 26 "/>
     <path d="M 16.3125 12 L 31.683594 12 C 34.621094 12 37 14.238281 37 17 C 37 19.761719 34.621094 22 31.683594 22 L 16.3125 22 C 13.378906 22 11 19.761719 11 17 C 11 14.238281 13.378906 12 16.3125 12 Z M 16.3125 12 "/>
     <path d="M 27.25 27 L 31.746094 27 C 34.097656 27 36 28.792969 36 31 C 36 33.210938 34.097656 35 31.746094 35 L 27.25 35 C 24.902344 35 23 33.210938 23 31 C 23 28.792969 24.902344 27 27.25 27 Z M 27.25 27 "/>
     <path d="M 16.253906 13 L 20.75 13 C 23.097656 13 25 14.792969 25 17 C 25 19.210938 23.097656 21 20.75 21 L 16.253906 21 C 13.90625 21 12 19.210938 12 17 C 12 14.792969 13.90625 13 16.253906 13 Z M 16.253906 13 "/>
    </g>
   </g>
  </g>
 </g>
 <g>
  <g clip-path="url(#3)">
   <g transform="translate(0,-1)">
    <g>
     <path d="M 16.3125 26 L 31.683594 26 C 34.621094 26 37 28.238281 37 31 C 37 33.761719 34.621094 36 31.683594 36 L 16.3125 36 C 13.378906 36 11 33.761719 11 31 C 11 28.238281 13.378906 26 16.3125 26 Z M 16.3125 26 " fill="#f9f9f9"/>
     <path d="M 16.3125 12 L 31.683594 12 C 34.621094 12 37 14.238281 37 17 C 37 19.761719 34.621094 22 31.683594 22 L 16.3125 22 C 13.378906 22 11 19.761719 11 17 C 11 14.238281 13.378906 12 16.3125 12 Z M 16.3125 12 " fill="#f9f9f9"/>
     <path d="M 27.25 27 L 31.746094 27 C 34.097656 27 36 28.792969 36 31 C 36 33.210938 34.097656 35 31.746094 35 L 27.25 35 C 24.902344 35 23 33.210938 23 31 C 23 28.792969 24.902344 27 27.25 27 Z M 27.25 27 " fill="#999999"/>
     <path d="M 16.253906 13 L 20.75 13 C 23.097656 13 25 14.792969 25 17 C 25 19.210938 23.097656 21 20.75 21 L 16.253906 21 C 13.90625 21 12 19.210938 12 17 C 12 14.792969 13.90625 13 16.253906 13 Z M 16.253906 13 " fill="#d14636"/>
    </g>
   </g>
  </g>
 </g>
 <g>
  <g transform="translate(0,-1004.3622)">
   <path d="m 1,1043.3622 0,4 c 0,2.216 1.784,4 4,4 l 38,0 c 2.216,0 4,-1.784 4,-4 l 0,-4 c 0,2.216 -1.784,4 -4,4 l -38,0 c -2.216,0 -4,-1.784 -4,-4 z" opacity="0.1"/>
  </g>
 </g>
</svg>

<svg viewBox="0 0 48 48"><defs><linearGradient id="linearGradient3764" x1="1" x2="47" gradientUnits="userSpaceOnUse" gradientTransform="translate(-48.000001,0.00221467)"><stop stop-color="#52525e" stop-opacity="1"/><stop offset="1" stop-color="#5c5c68" stop-opacity="1"/></linearGradient><clipPath id="clipPath-183378616"><g transform="translate(0,-1004.3622)"><rect rx="4" y="1005.36" x="1" height="46" width="46" fill="#1890d0"/></g></clipPath><clipPath id="clipPath-196479548"><g transform="translate(0,-1004.3622)"><rect rx="4" y="1005.36" x="1" height="46" width="46" fill="#1890d0"/></g></clipPath></defs><g><path d="m 1 43 l 0 0.25 c 0 2.216 1.784 4 4 4 l 38 0 c 2.216 0 4 -1.784 4 -4 l 0 -0.25 c 0 2.216 -1.784 4 -4 4 l -38 0 c -2.216 0 -4 -1.784 -4 -4 z m 0 0.5 l 0 0.5 c 0 2.216 1.784 4 4 4 l 38 0 c 2.216 0 4 -1.784 4 -4 l 0 -0.5 c 0 2.216 -1.784 4 -4 4 l -38 0 c -2.216 0 -4 -1.784 -4 -4 z" opacity="0.02"/><path d="m 1 43.25 l 0 0.25 c 0 2.216 1.784 4 4 4 l 38 0 c 2.216 0 4 -1.784 4 -4 l 0 -0.25 c 0 2.216 -1.784 4 -4 4 l -38 0 c -2.216 0 -4 -1.784 -4 -4 z" opacity="0.05"/><path d="m 1 43 l 0 0.25 c 0 2.216 1.784 4 4 4 l 38 0 c 2.216 0 4 -1.784 4 -4 l 0 -0.25 c 0 2.216 -1.784 4 -4 4 l -38 0 c -2.216 0 -4 -1.784 -4 -4 z" opacity="0.1"/></g><g><rect width="46" height="46" x="-47" y="1" rx="4" transform="matrix(0,-1,1,0,0,0)" fill="url(#linearGradient3764)" fill-opacity="1"/></g><g><g clip-path="url(#clipPath-183378616)"><g opacity="0.1"><!-- color: #5c5c68 --><g><path d="m 16.313 26 l 15.371 0 c 2.938 0 5.316 2.238 5.316 5 c 0 2.762 -2.379 5 -5.316 5 l -15.371 0 c -2.934 0 -5.313 -2.238 -5.313 -5 c 0 -2.762 2.379 -5 5.313 -5 m 0 0" fill="#000"/><path d="m 16.313 12 l 15.371 0 c 2.938 0 5.316 2.238 5.316 5 c 0 2.762 -2.379 5 -5.316 5 l -15.371 0 c -2.934 0 -5.313 -2.238 -5.313 -5 c 0 -2.762 2.379 -5 5.313 -5 m 0 0" fill="#000"/><path d="m 27.25 27 l 4.496 0 c 2.352 0 4.254 1.793 4.254 4 c 0 2.211 -1.902 4 -4.254 4 l -4.496 0 c -2.348 0 -4.25 -1.789 -4.25 -4 c 0 -2.207 1.902 -4 4.25 -4 m 0 0" fill="#000"/><path d="m 16.254 13 l 4.496 0 c 2.348 0 4.25 1.793 4.25 4 c 0 2.211 -1.902 4 -4.25 4 l -4.496 0 c -2.348 0 -4.254 -1.789 -4.254 -4 c 0 -2.207 1.906 -4 4.254 -4 m 0 0" fill="#000"/></g></g></g></g><g><g clip-path="url(#clipPath-196479548)"><g transform="translate(0,-1)"><!-- color: #5c5c68 --><g><path d="m 16.313 26 l 15.371 0 c 2.938 0 5.316 2.238 5.316 5 c 0 2.762 -2.379 5 -5.316 5 l -15.371 0 c -2.934 0 -5.313 -2.238 -5.313 -5 c 0 -2.762 2.379 -5 5.313 -5 m 0 0" fill="#f9f9f9"/><path d="m 16.313 12 l 15.371 0 c 2.938 0 5.316 2.238 5.316 5 c 0 2.762 -2.379 5 -5.316 5 l -15.371 0 c -2.934 0 -5.313 -2.238 -5.313 -5 c 0 -2.762 2.379 -5 5.313 -5 m 0 0" fill="#f9f9f9"/><path d="m 27.25 27 l 4.496 0 c 2.352 0 4.254 1.793 4.254 4 c 0 2.211 -1.902 4 -4.254 4 l -4.496 0 c -2.348 0 -4.25 -1.789 -4.25 -4 c 0 -2.207 1.902 -4 4.25 -4 m 0 0" fill="#999"/><path d="m 16.254 13 l 4.496 0 c 2.348 0 4.25 1.793 4.25 4 c 0 2.211 -1.902 4 -4.25 4 l -4.496 0 c -2.348 0 -4.254 -1.789 -4.254 -4 c 0 -2.207 1.906 -4 4.254 -4 m 0 0" fill="#d14636"/></g></g></g></g><g><g transform="translate(0,-1004.3622)"><path d="m 1 1043.36 0 4 c 0 2.216 1.784 4 4 4 l 38 0 c 2.216 0 4 -1.784 4 -4 l 0 -4 c 0 2.216 -1.784 4 -4 4 l -38 0 c -2.216 0 -4 -1.784 -4 -4 z" opacity="0.1"/></g></g></svg>
